images_elementary_svg/cmd/sc_editprintarea.svg

<svg height="16" width="16" xmlns="http://www.w3.org/2000/svg" xmlns:xlink="http://www.w3.org/1999/xlink"><linearGradient id="a" gradientTransform="matrix(.41578 -.4175 .51898 .51462 -15.747 2.65)" gradientUnits="userSpaceOnUse" x1="23.576" x2="23.576" y1="25.357" y2="31.211"><stop offset="0" stop-color="#181818"/><stop offset=".135" stop-color="#dbdbdb"/><stop offset=".202" stop-color="#a4a4a4"/><stop offset=".27" stop-color="#fff"/><stop offset=".447" stop-color="#8d8d8d"/><stop offset=".571" stop-color="#959595"/><stop offset=".72" stop-color="#cecece"/><stop offset="1" stop-color="#181818"/></linearGradient><linearGradient id="b" gradientTransform="matrix(.40402 -.4057 .60738 .60227 -17.868 .693)" gradientUnits="userSpaceOnUse" x1="30.038" x2="30.038" xlink:href="#c" y1="24.99" y2="30"/><linearGradient id="c"><stop offset="0" stop-color="#565656"/><stop offset=".5" stop-color="#9a9a9a"/><stop offset="1" stop-color="#545454"/></linearGradient><linearGradient id="d" gradientTransform="matrix(.40402 -.4057 .60738 .60227 -17.983 .81)" gradientUnits="userSpaceOnUse" x1="30.038" x2="30.038" xlink:href="#e" y1="24.99" y2="30"/><linearGradient id="e"><stop offset="0" stop-color="#b1b1b1"/><stop offset=".5" stop-color="#fff"/><stop offset="1" stop-color="#8f8f8f"/></linearGradient><linearGradient id="f" gradientTransform="matrix(.40402 -.4057 .60738 .60227 -17.466 .29)" gradientUnits="userSpaceOnUse" x1="30.038" x2="30.038" xlink:href="#c" y1="24.99" y2="30"/><linearGradient id="g" gradientTransform="matrix(.40402 -.4057 .60738 .60227 -17.58 .405)" gradientUnits="userSpaceOnUse" x1="30.038" x2="30.038" xlink:href="#e" y1="24.99" y2="30"/><linearGradient id="h" gradientTransform="matrix(.40402 -.4057 .60738 .60227 -17.062 -.116)" gradientUnits="userSpaceOnUse" x1="30.038" x2="30.038" xlink:href="#c" y1="24.99" y2="30"/><linearGradient id="i" gradientTransform="matrix(.40402 -.4057 .60738 .60227 -17.177 0)" gradientUnits="userSpaceOnUse" x1="30.038" x2="30.038" xlink:href="#e" y1="24.99" y2="30"/><linearGradient id="j" gradientTransform="matrix(.40402 -.4057 .60738 .60227 -17.637 .462)" gradientUnits="userSpaceOnUse" x1="9" x2="9" y1="29.056999" y2="26.030001"><stop offset="0" stop-color="#ece5a5"/><stop offset="1" stop-color="#fcfbf2"/></linearGradient><linearGradient id="k" gradientTransform="matrix(.37638 .03615 .0367 .37487 -2.218 -1.133)" gradientUnits="userSpaceOnUse" x1="5.518" x2="9.522" y1="37.372002" y2="41.391998"><stop offset="0" stop-color="#dbce48"/><stop offset="1" stop-color="#c5b625"/></linearGradient><path d="m15 1v12h-14v-12z" fill="#e9e9e9"/><g fill="none"><path d="m15.5.5v13h-15v-13z" opacity=".74" stroke="#9f9f9f" stroke-linejoin="round"/><path d="m1.483 12.517.017-11.017h13l-.017 11.017z" stroke="#fff" stroke-linecap="round"/><path d="m3.497 3.503h9.972v9.04h-9.974z" stroke="#e25757" stroke-dasharray="1 1" stroke-dashoffset=".5"/></g><path d="m2.396 14.988c.005.248.02.632.236.685 2.282.013 4.575-.01 6.856-.006.235.01.244-.43.236-.69l-7.33.01z" fill="#505050" stroke="#565656" stroke-linecap="square" stroke-width=".691"/><g stroke-linecap="round"><path d="m.637 9.568.517-2.11 9.76.014.494 2.118z" fill="#4f4f4f" fill-rule="evenodd"/><path d="m1.037 9.54 9.99.012c.278 0 .502.24.5.54l-.004 4.414-10.993-.01.007-4.416c0-.3.223-.54.5-.54z" fill="#4f4f4f"/><path d="m1.037 9.54 9.99.012c.278 0 .502.24.5.54l-.004 4.414-10.993-.01.007-4.416c0-.3.223-.54.5-.54z" fill="none" opacity=".71" stroke="#393939" stroke-linejoin="round"/><path d="m8.05 10h1v1h-1z" fill="#0cceff"/><path d="m.637 9.568.517-2.11 9.76.014.494 2.118z" fill="none" opacity=".7" stroke="#393939" stroke-linecap="butt"/></g><path d="m9.734 12v3.262c0 .19-.048.34-.108.34h-7.126c-.06 0-.107-.15-.107-.34v-3.262z" fill="#e9e9e9"/><path d="m2.56 4.508 6.99-.008-.006 4.23-6.99.01z" fill="#e9e9e9" stroke="#8c8c8c" stroke-linejoin="round"/><g transform="translate(0 4.369768)"><path d="m14 8.667c-.097-.016-.172-.01-.22.002l-6.536 1.45-1.203.267-.036.006-1.395 1.03 3.56-.053.03-.007 1.21-.266 6.533-1.462c.196-.044-.128-.295-.727-.564-.45-.2-.923-.358-1.215-.403z" fill="#0c0c0c" fill-rule="evenodd" opacity=".15"/><path d="m2.05 11.037c.285-.207 1.147.257 1.96 1.062.81.803 1.26 1.64 1.057 1.93 0 0 .02.018.02.02l10.136-10.182c.258-.258-.213-1.143-1.05-1.974-.84-.832-1.73-1.295-1.987-1.037z" fill="url(#a)" stroke="#0c0c0c" stroke-linejoin="round" stroke-width=".485" transform="matrix(.74077 0 0 .74257 4.48 -.4)"/><path d="m10.565 2.484c.287-.208 1.148.256 1.96 1.062.81.804 1.26 1.64 1.058 1.93 0 .002.02.018.02.02l1.55-1.558c.41-.408-.028-1.093-.98-2.044-.813-.806-1.674-1.27-1.96-1.062l-.026.025z" fill="#ffb6ed" opacity=".8" stroke="#e28ccd" stroke-linejoin="round" stroke-width=".485" transform="matrix(.74077 0 0 .74257 4.48 -.4)"/><path d="m5.998 7.796c.212-.154.85.19 1.452.79.6.595.933 1.217.783 1.432 0 0 .015.013.014.014l5.172-5.206.018-.02s-.015-.012-.014-.013c.15-.214-.183-.837-.783-1.433-.6-.598-1.24-.943-1.452-.79l-.018.02z" fill="#0c0c0c" opacity=".6"/><g transform="matrix(.74077 0 0 .74257 4.48 -.4)"><path d="m9.18 3.877c.285-.208 1.146.256 1.96 1.062.81.802 1.26 1.64 1.056 1.93l.02.018.126-.127s-.02-.016-.02-.018c.203-.29-.246-1.127-1.057-1.93-.812-.806-1.674-1.27-1.96-1.062z" fill="url(#b)"/><path d="m9.063 3.993c.286-.208 1.148.256 1.96 1.062.81.803 1.26 1.64 1.058 1.93 0 .002.02.018.02.02l.126-.128-.02-.018c.204-.29-.246-1.128-1.057-1.932-.813-.806-1.674-1.27-1.96-1.062z" fill="url(#d)"/><path d="m9.58 3.473c.287-.208 1.15.256 1.96 1.062.81.804 1.26 1.64 1.06 1.93-.002.002.018.018.017.02l.127-.127c0-.002-.02-.018-.02-.02.203-.29-.246-1.126-1.057-1.93-.812-.805-1.674-1.27-1.96-1.062z" fill="url(#f)"/><path d="m9.465 3.59c.286-.21 1.148.256 1.96 1.06.81.805 1.26 1.642 1.058 1.932l.02.018.125-.126s-.02-.018-.02-.02c.204-.288-.246-1.126-1.056-1.93-.813-.805-1.674-1.27-1.96-1.062z" fill="url(#g)"/><path d="m9.985 3.067c.286-.207 1.148.257 1.96 1.062.81.803 1.26 1.64 1.058 1.93 0 0 .02.018.02.02l.125-.128s-.02-.018-.02-.02c.203-.288-.246-1.126-1.057-1.93-.81-.805-1.673-1.27-1.96-1.062z" fill="url(#h)"/><path d="m9.87 3.183c.285-.207 1.147.257 1.96 1.062.81.804 1.26 1.642 1.057 1.93 0 .002.02.02.02.02l.125-.127s-.02-.018-.02-.02c.204-.288-.246-1.126-1.056-1.93-.813-.805-1.674-1.27-1.96-1.06z" fill="url(#i)"/><g fill-rule="evenodd" stroke-width=".485"><path d="m.26 15.794 4.772-1.725.04-.04c.202-.29-.253-1.128-1.064-1.93-.812-.807-1.673-1.27-1.96-1.06z" fill="url(#j)" stroke="url(#k)"/><path d="m.744 14.506-.484 1.284 1.3-.474c-.113-.134-.22-.268-.354-.402-.155-.154-.307-.28-.462-.408z" fill="#0c0c0c" stroke="#0c0c0c"/></g></g></g></svg>

<?xml version="1.0" encoding="UTF-8" standalone="no"?>
<svg
   xmlns:dc="http://purl.org/dc/elements/1.1/"
   xmlns:cc="http://creativecommons.org/ns#"
   xmlns:rdf="http://www.w3.org/1999/02/22-rdf-syntax-ns#"
   xmlns:svg="http://www.w3.org/2000/svg"
   xmlns="http://www.w3.org/2000/svg"
   xmlns:xlink="http://www.w3.org/1999/xlink"
   xmlns:sodipodi="http://sodipodi.sourceforge.net/DTD/sodipodi-0.dtd"
   xmlns:inkscape="http://www.inkscape.org/namespaces/inkscape"
   height="16"
   width="16"
   version="1.1"
   id="svg54"
   sodipodi:docname="sc_editprintarea.svg"
   inkscape:version="0.92.3 (unknown)">
  <metadata
     id="metadata58">
    <rdf:RDF>
      <cc:Work
         rdf:about="">
        <dc:format>image/svg+xml</dc:format>
        <dc:type
           rdf:resource="http://purl.org/dc/dcmitype/StillImage" />
        <dc:title></dc:title>
      </cc:Work>
    </rdf:RDF>
  </metadata>
  <sodipodi:namedview
     pagecolor="#ffffff"
     bordercolor="#666666"
     borderopacity="1"
     objecttolerance="10"
     gridtolerance="10"
     guidetolerance="10"
     inkscape:pageopacity="0"
     inkscape:pageshadow="2"
     inkscape:window-width="1366"
     inkscape:window-height="706"
     id="namedview56"
     showgrid="false"
     inkscape:zoom="14.75"
     inkscape:cx="-0.71186441"
     inkscape:cy="7.4576271"
     inkscape:window-x="0"
     inkscape:window-y="0"
     inkscape:window-maximized="1"
     inkscape:current-layer="svg54" />
  <defs
     id="defs12">
    <radialGradient
       cx="64.575"
       cy="48.605"
       r="31"
       fx="64.575"
       fy="48.605"
       id="b"
       xlink:href="#a"
       gradientUnits="userSpaceOnUse"
       gradientTransform="matrix(0 .3853 -.4196 0 32.39 -16.793)" />
    <linearGradient
       id="a">
      <stop
         offset="0"
         stop-color="#cdf87e"
         id="stop3" />
      <stop
         offset=".262"
         stop-color="#a2e34f"
         id="stop5" />
      <stop
         offset=".661"
         stop-color="#68b723"
         id="stop7" />
      <stop
         offset="1"
         stop-color="#1d7e0d"
         id="stop9" />
    </linearGradient>
    <linearGradient
       x1="23.576"
       y1="25.357"
       x2="23.576"
       y2="31.211"
       id="l"
       xlink:href="#d"
       gradientUnits="userSpaceOnUse"
       gradientTransform="matrix(0.41578,-0.4175,0.51898,0.51462,-15.747,2.65)" />
    <linearGradient
       id="d">
      <stop
         offset="0"
         stop-color="#181818"
         id="stop25" />
      <stop
         offset=".135"
         stop-color="#dbdbdb"
         id="stop27" />
      <stop
         offset=".202"
         stop-color="#a4a4a4"
         id="stop29" />
      <stop
         offset=".27"
         stop-color="#fff"
         id="stop31" />
      <stop
         offset=".447"
         stop-color="#8d8d8d"
         id="stop33" />
      <stop
         offset=".571"
         stop-color="#959595"
         id="stop35" />
      <stop
         offset=".72"
         stop-color="#cecece"
         id="stop37" />
      <stop
         offset="1"
         stop-color="#181818"
         id="stop39" />
    </linearGradient>
    <linearGradient
       x1="30.038"
       y1="24.99"
       x2="30.038"
       y2="30"
       id="m"
       xlink:href="#e"
       gradientUnits="userSpaceOnUse"
       gradientTransform="matrix(0.40402,-0.4057,0.60738,0.60227,-17.868,0.693)" />
    <linearGradient
       id="e">
      <stop
         offset="0"
         stop-color="#565656"
         id="stop43" />
      <stop
         offset=".5"
         stop-color="#9a9a9a"
         id="stop45" />
      <stop
         offset="1"
         stop-color="#545454"
         id="stop47" />
    </linearGradient>
    <linearGradient
       x1="30.038"
       y1="24.99"
       x2="30.038"
       y2="30"
       id="n"
       xlink:href="#f"
       gradientUnits="userSpaceOnUse"
       gradientTransform="matrix(0.40402,-0.4057,0.60738,0.60227,-17.983,0.81)" />
    <linearGradient
       id="f">
      <stop
         offset="0"
         stop-color="#b1b1b1"
         id="stop51" />
      <stop
         offset=".5"
         stop-color="#fff"
         id="stop53" />
      <stop
         offset="1"
         stop-color="#8f8f8f"
         id="stop55" />
    </linearGradient>
    <linearGradient
       x1="30.038"
       y1="24.99"
       x2="30.038"
       y2="30"
       id="o"
       xlink:href="#e"
       gradientUnits="userSpaceOnUse"
       gradientTransform="matrix(0.40402,-0.4057,0.60738,0.60227,-17.466,0.29)" />
    <linearGradient
       x1="30.038"
       y1="24.99"
       x2="30.038"
       y2="30"
       id="p"
       xlink:href="#f"
       gradientUnits="userSpaceOnUse"
       gradientTransform="matrix(0.40402,-0.4057,0.60738,0.60227,-17.58,0.405)" />
    <linearGradient
       x1="30.038"
       y1="24.99"
       x2="30.038"
       y2="30"
       id="q"
       xlink:href="#e"
       gradientUnits="userSpaceOnUse"
       gradientTransform="matrix(0.40402,-0.4057,0.60738,0.60227,-17.062,-0.116)" />
    <linearGradient
       x1="30.038"
       y1="24.99"
       x2="30.038"
       y2="30"
       id="r"
       xlink:href="#f"
       gradientUnits="userSpaceOnUse"
       gradientTransform="matrix(0.40402,-0.4057,0.60738,0.60227,-17.177,0)" />
    <linearGradient
       x1="9"
       y1="29.056999"
       x2="9"
       y2="26.030001"
       id="s"
       xlink:href="#g"
       gradientUnits="userSpaceOnUse"
       gradientTransform="matrix(0.40402,-0.4057,0.60738,0.60227,-17.637,0.462)" />
    <linearGradient
       id="g">
      <stop
         offset="0"
         stop-color="#ece5a5"
         id="stop63" />
      <stop
         offset="1"
         stop-color="#fcfbf2"
         id="stop65" />
    </linearGradient>
    <linearGradient
       x1="5.5180001"
       y1="37.372002"
       x2="9.5220003"
       y2="41.391998"
       id="t"
       xlink:href="#h"
       gradientUnits="userSpaceOnUse"
       gradientTransform="matrix(0.37638,0.03615,0.0367,0.37487,-2.218,-1.133)" />
    <linearGradient
       id="h">
      <stop
         offset="0"
         stop-color="#dbce48"
         id="stop69" />
      <stop
         offset="1"
         stop-color="#c5b625"
         id="stop71" />
    </linearGradient>
  </defs>
  <path
     fill="#e9e9e9"
     d="M15 1v12H1V1z"
     id="path14" />
  <path
     d="M15.5.5v13H.5V.5z"
     opacity=".74"
     fill="none"
     stroke="#9f9f9f"
     stroke-linejoin="round"
     id="path16" />
  <path
     d="M1.483 12.517L1.5 1.5h13l-.017 11.017z"
     fill="none"
     stroke="#fff"
     stroke-linecap="round"
     id="path18" />
  <path
     d="M3.497 3.503h9.972v9.04H3.495z"
     fill="none"
     stroke="#e25757"
     stroke-dasharray="1, 1"
     stroke-dashoffset=".5"
     id="path20" />
  <g
     id="g40">
    <path
       d="M2.396 14.988c.005.248.02.632.236.685 2.282.013 4.575-.01 6.856-.006.235.01.244-.43.236-.69l-7.33.01z"
       fill="#505050"
       stroke="#565656"
       stroke-width=".691"
       stroke-linecap="square"
       id="path22" />
    <g
       stroke-linecap="round"
       id="g34">
      <path
         d="M.637 9.568l.517-2.11 9.76.014.494 2.118z"
         fill="#4f4f4f"
         fill-rule="evenodd"
         id="path24" />
      <path
         d="M1.037 9.54l9.99.012c.278 0 .502.24.5.54l-.004 4.414-10.993-.01.007-4.416c0-.3.223-.54.5-.54z"
         fill="#4f4f4f"
         id="path26" />
      <path
         d="M1.037 9.54l9.99.012c.278 0 .502.24.5.54l-.004 4.414-10.993-.01.007-4.416c0-.3.223-.54.5-.54z"
         opacity=".71"
         fill="none"
         stroke="#393939"
         stroke-linejoin="round"
         id="path28" />
      <path
         d="M8.05 10h1v1h-1z"
         overflow="visible"
         color="#000"
         fill="#0cceff"
         id="path30" />
      <path
         d="M.637 9.568l.517-2.11 9.76.014.494 2.118z"
         opacity=".7"
         fill="none"
         stroke="#393939"
         stroke-linecap="butt"
         id="path32" />
    </g>
    <path
       d="M9.734 12v3.262c0 .19-.048.34-.108.34H2.5c-.06 0-.107-.15-.107-.34V12z"
       fill="#e9e9e9"
       id="path36" />
    <path
       d="M2.56 4.508L9.55 4.5l-.006 4.23-6.99.01z"
       fill="#e9e9e9"
       stroke="#8c8c8c"
       stroke-linejoin="round"
       id="path38" />
  </g>
  <g
     id="g106"
     transform="translate(0,4.3697677)">
    <path
       style="opacity:0.15;fill:#0c0c0c;fill-rule:evenodd"
       inkscape:connector-curvature="0"
       d="M 14,8.667 C 13.903,8.651 13.828,8.657 13.78,8.669 L 7.244,10.119 6.041,10.386 6.005,10.392 4.61,11.422 8.17,11.369 8.2,11.362 9.41,11.096 15.943,9.634 C 16.139,9.59 15.815,9.339 15.216,9.07 14.766,8.87 14.293,8.712 14.001,8.667 Z"
       id="path82" />
    <path
       style="fill:url(#l);stroke:#0c0c0c;stroke-width:0.48500001;stroke-linejoin:round"
       inkscape:connector-curvature="0"
       d="m 2.05,11.037 c 0.285,-0.207 1.147,0.257 1.96,1.062 0.81,0.803 1.26,1.64 1.057,1.93 0,0 0.02,0.018 0.02,0.02 L 15.223,3.867 C 15.481,3.609 15.01,2.724 14.173,1.893 13.333,1.061 12.443,0.598 12.186,0.856 Z"
       transform="matrix(0.74077,0,0,0.74257,4.48,-0.4)"
       id="path84" />
    <path
       style="opacity:0.8;fill:#ffb6ed;stroke:#e28ccd;stroke-width:0.48500001;stroke-linejoin:round"
       inkscape:connector-curvature="0"
       d="m 10.565,2.484 c 0.287,-0.208 1.148,0.256 1.96,1.062 0.81,0.804 1.26,1.64 1.058,1.93 0,0.002 0.02,0.018 0.02,0.02 l 1.55,-1.558 C 15.563,3.53 15.125,2.845 14.173,1.894 13.36,1.088 12.499,0.624 12.213,0.832 l -0.026,0.025 z"
       transform="matrix(0.74077,0,0,0.74257,4.48,-0.4)"
       id="path86" />
    <path
       style="opacity:0.6;fill:#0c0c0c"
       inkscape:connector-curvature="0"
       d="m 5.998,7.796 c 0.212,-0.154 0.85,0.19 1.452,0.79 0.6,0.595 0.933,1.217 0.783,1.432 0,0 0.015,0.013 0.014,0.014 l 5.172,-5.206 0.018,-0.02 c 0,0 -0.015,-0.012 -0.014,-0.013 C 13.573,4.579 13.24,3.956 12.64,3.36 12.04,2.762 11.4,2.417 11.188,2.57 L 11.17,2.59 Z"
       id="path88" />
    <path
       style="fill:url(#m)"
       inkscape:connector-curvature="0"
       d="m 9.18,3.877 c 0.285,-0.208 1.146,0.256 1.96,1.062 0.81,0.802 1.26,1.64 1.056,1.93 l 0.02,0.018 0.126,-0.127 c 0,0 -0.02,-0.016 -0.02,-0.018 C 12.525,6.452 12.076,5.615 11.265,4.812 10.453,4.006 9.591,3.542 9.305,3.75 Z"
       transform="matrix(0.74077,0,0,0.74257,4.48,-0.4)"
       id="path90" />
    <path
       style="fill:url(#n)"
       inkscape:connector-curvature="0"
       d="m 9.063,3.993 c 0.286,-0.208 1.148,0.256 1.96,1.062 0.81,0.803 1.26,1.64 1.058,1.93 0,0.002 0.02,0.018 0.02,0.02 L 12.227,6.877 12.207,6.859 C 12.411,6.569 11.961,5.731 11.15,4.927 10.337,4.121 9.476,3.657 9.19,3.865 Z"
       transform="matrix(0.74077,0,0,0.74257,4.48,-0.4)"
       id="path92" />
    <path
       style="fill:url(#o)"
       inkscape:connector-curvature="0"
       d="m 9.58,3.473 c 0.287,-0.208 1.15,0.256 1.96,1.062 0.81,0.804 1.26,1.64 1.06,1.93 -0.002,0.002 0.018,0.018 0.017,0.02 l 0.127,-0.127 c 0,-0.002 -0.02,-0.018 -0.02,-0.02 C 12.927,6.048 12.478,5.212 11.667,4.408 10.855,3.603 9.993,3.138 9.707,3.346 Z"
       transform="matrix(0.74077,0,0,0.74257,4.48,-0.4)"
       id="path94" />
    <path
       style="fill:url(#p)"
       inkscape:connector-curvature="0"
       d="m 9.465,3.59 c 0.286,-0.21 1.148,0.256 1.96,1.06 0.81,0.805 1.26,1.642 1.058,1.932 l 0.02,0.018 0.125,-0.126 c 0,0 -0.02,-0.018 -0.02,-0.02 C 12.812,6.166 12.362,5.328 11.552,4.524 10.739,3.719 9.878,3.254 9.592,3.462 Z"
       transform="matrix(0.74077,0,0,0.74257,4.48,-0.4)"
       id="path96" />
    <path
       style="fill:url(#q)"
       inkscape:connector-curvature="0"
       d="m 9.985,3.067 c 0.286,-0.207 1.148,0.257 1.96,1.062 0.81,0.803 1.26,1.64 1.058,1.93 0,0 0.02,0.018 0.02,0.02 l 0.125,-0.128 c 0,0 -0.02,-0.018 -0.02,-0.02 0.203,-0.288 -0.246,-1.126 -1.057,-1.93 -0.81,-0.805 -1.673,-1.27 -1.96,-1.062 z"
       transform="matrix(0.74077,0,0,0.74257,4.48,-0.4)"
       id="path98" />
    <path
       style="fill:url(#r)"
       inkscape:connector-curvature="0"
       d="m 9.87,3.183 c 0.285,-0.207 1.147,0.257 1.96,1.062 0.81,0.804 1.26,1.642 1.057,1.93 0,0.002 0.02,0.02 0.02,0.02 l 0.125,-0.127 c 0,0 -0.02,-0.018 -0.02,-0.02 C 13.216,5.76 12.766,4.922 11.956,4.118 11.143,3.313 10.282,2.848 9.996,3.058 Z"
       transform="matrix(0.74077,0,0,0.74257,4.48,-0.4)"
       id="path100" />
    <path
       style="fill:url(#s);fill-rule:evenodd;stroke:url(#t);stroke-width:0.48500001"
       inkscape:connector-curvature="0"
       d="m 0.26,15.794 4.772,-1.725 0.04,-0.04 c 0.202,-0.29 -0.253,-1.128 -1.064,-1.93 -0.812,-0.807 -1.673,-1.27 -1.96,-1.06 z"
       transform="matrix(0.74077,0,0,0.74257,4.48,-0.4)"
       id="path102" />
    <path
       style="fill:#0c0c0c;fill-rule:evenodd;stroke:#0c0c0c;stroke-width:0.48500001"
       inkscape:connector-curvature="0"
       d="M 0.744,14.506 0.26,15.79 1.56,15.316 C 1.447,15.182 1.34,15.048 1.206,14.914 1.051,14.76 0.899,14.634 0.744,14.506 Z"
       transform="matrix(0.74077,0,0,0.74257,4.48,-0.4)"
       id="path104" />
  </g>
</svg>
